templates/main/source/images/play.svg

<?xml version="1.0" encoding="utf-8"?>
<svg width="45px" height="45px" viewBox="0 0 45 45" version="1.1" xmlns:xlink="http://www.w3.org/1999/xlink" xmlns="http://www.w3.org/2000/svg">
  <desc>Created with Lunacy</desc>
  <defs>
    <filter filterUnits="userSpaceOnUse" color-interpolation-filters="sRGB" id="filter_1">
      <feFlood flood-opacity="0" result="BackgroundImageFix" />
      <feColorMatrix in="SourceAlpha" type="matrix" values="0 0 0 0 0 0 0 0 0 0 0 0 0 0 0 0 0 0 127 0" />
      <feOffset dx="0" dy="2" />
      <feGaussianBlur stdDeviation="12.5" />
      <feColorMatrix type="matrix" values="0 0 0 0 0 0 0 0 0 0 0 0 0 0 0 0 0 0 0.14117648 0" />
      <feBlend mode="normal" in2="BackgroundImageFix" result="effect0_dropShadow" />
      <feBlend mode="normal" in="SourceGraphic" in2="effect0_dropShadow" result="shape" />
    </filter>
  </defs>
  <g id="buttons/play">
    <g id="play">
      <path d="M22.5 45C34.9264 45 45 34.9264 45 22.5C45 10.0736 34.9264 0 22.5 0C10.0736 0 0 10.0736 0 22.5C0 34.9264 10.0736 45 22.5 45Z" id="Oval" fill="#F59B00" stroke="none" />
      <g filter="url(#filter_1)">
        <path d="M14.6503 9.95087L2.93205 16.1355Q2.87523 16.1655 2.81659 16.1918Q2.75796 16.2181 2.69776 16.2405Q2.63756 16.263 2.57604 16.2815Q2.51452 16.3001 2.45194 16.3146Q2.38936 16.3292 2.32597 16.3397Q2.26259 16.3502 2.19865 16.3566Q2.13472 16.3631 2.07051 16.3654Q2.0063 16.3676 1.94207 16.3658Q1.87784 16.364 1.81387 16.358Q1.74989 16.3521 1.68643 16.342Q1.62297 16.332 1.56028 16.3179Q1.49759 16.3038 1.43594 16.2857Q1.37429 16.2676 1.31393 16.2456Q1.25356 16.2236 1.19474 16.1977Q1.13592 16.1719 1.07888 16.1423Q1.02183 16.1127 0.96681 16.0795Q0.911785 16.0463 0.859004 16.0097Q0.806224 15.9731 0.755905 15.9331Q0.705587 15.8932 0.657938 15.85Q0.61029 15.8069 0.565507 15.7609Q0.520725 15.7148 0.478995 15.6659Q0.437264 15.6171 0.398757 15.5656Q0.36025 15.5142 0.325125 15.4604Q0.290001 15.4066 0.258404 15.3506Q0.226807 15.2947 0.198868 15.2368Q0.17093 15.179 0.146765 15.1194Q0.122599 15.0599 0.102307 14.9989Q0.0820151 14.938 0.06568 14.8758Q0.0493449 14.8137 0.0370342 14.7506Q0.0247235 14.6876 0.016488 14.6238Q0.00825252 14.5601 0.00412626 14.496Q0 14.4319 0 14.3676L0 1.99834Q0 1.93409 0.00412626 1.86997Q0.00825251 1.80585 0.016488 1.74212Q0.0247235 1.6784 0.0370342 1.61534Q0.0493449 1.55228 0.06568 1.49013Q0.0820151 1.42799 0.102307 1.36703Q0.122599 1.30606 0.146764 1.24653Q0.17093 1.18699 0.198868 1.12913Q0.226807 1.07127 0.258404 1.01532Q0.290001 0.959375 0.325125 0.905572Q0.36025 0.85177 0.398757 0.800334Q0.437264 0.748898 0.478995 0.700041Q0.520725 0.651184 0.565507 0.605108Q0.61029 0.559031 0.657938 0.515926Q0.705587 0.472821 0.755905 0.432865Q0.806224 0.392908 0.859004 0.356266Q0.911785 0.319624 0.96681 0.286446Q1.02183 0.253269 1.07888 0.223694Q1.13592 0.194119 1.19474 0.168268Q1.25356 0.142417 1.31393 0.120397Q1.37429 0.0983767 1.43594 0.0802785Q1.49759 0.0621803 1.56028 0.0480787Q1.62296 0.033977 1.68643 0.0239301Q1.74989 0.0138832 1.81387 0.00793256Q1.87784 0.00198191 1.94207 0.000152068Q2.0063 -0.00167778 2.07051 0.000620743Q2.13472 0.00291926 2.19865 0.00933665Q2.26259 0.015754 2.32597 0.0262638Q2.38936 0.0367736 2.45194 0.0513323Q2.51452 0.0658911 2.57604 0.0844387Q2.63756 0.102986 2.69776 0.125446Q2.75796 0.147906 2.81659 0.174186Q2.87523 0.200465 2.93205 0.230456L14.6503 6.4151Q14.7103 6.44675 14.768 6.4824Q14.8257 6.51804 14.8808 6.55752Q14.936 6.59699 14.9883 6.64011Q15.0407 6.68323 15.09 6.7298Q15.1392 6.77636 15.1853 6.82617Q15.2313 6.87597 15.2739 6.92877Q15.3164 6.98158 15.3553 7.03715Q15.3941 7.09272 15.4292 7.15079Q15.4642 7.20887 15.4952 7.26918Q15.5262 7.3295 15.553 7.39178Q15.5799 7.45405 15.6024 7.51801Q15.625 7.58196 15.6432 7.6473Q15.6613 7.71263 15.675 7.77905Q15.6887 7.84546 15.6979 7.91266Q15.7071 7.97985 15.7117 8.04751Q15.7163 8.11517 15.7163 8.18298Q15.7163 8.2508 15.7117 8.31846Q15.7071 8.38612 15.6979 8.45331Q15.6887 8.5205 15.675 8.58692Q15.6613 8.65334 15.6432 8.71867Q15.625 8.78401 15.6024 8.84796Q15.5799 8.91191 15.553 8.97419Q15.5262 9.03647 15.4952 9.09678Q15.4642 9.1571 15.4292 9.21517Q15.3941 9.27325 15.3553 9.32882Q15.3164 9.38439 15.2739 9.43719Q15.2313 9.49 15.1853 9.5398Q15.1392 9.5896 15.09 9.63617Q15.0407 9.68274 14.9883 9.72586Q14.936 9.76898 14.8808 9.80845Q14.8257 9.84793 14.768 9.88357Q14.7103 9.91922 14.6503 9.95087Z" transform="translate(16 14)" id="Triangle" fill="#FFFFFF" stroke="none" />
      </g>
    </g>
  </g>
</svg>

<svg width="45" height="45" viewBox="0 0 45 45" xmlns:xlink="http://www.w3.org/1999/xlink" xmlns="http://www.w3.org/2000/svg"><defs><filter filterUnits="userSpaceOnUse" color-interpolation-filters="sRGB" id="filter_1"><feFlood flood-opacity="0" result="BackgroundImageFix"/><feColorMatrix in="SourceAlpha" values="0 0 0 0 0 0 0 0 0 0 0 0 0 0 0 0 0 0 127 0"/><feOffset dy="2"/><feGaussianBlur stdDeviation="12.5"/><feColorMatrix values="0 0 0 0 0 0 0 0 0 0 0 0 0 0 0 0 0 0 0.14117648 0"/><feBlend in2="BackgroundImageFix" result="effect0_dropShadow"/><feBlend in="SourceGraphic" in2="effect0_dropShadow" result="shape"/></filter></defs><g id="buttons/play"><g id="play"><path d="M22.5 45C34.926 45 45 34.926 45 22.5S34.926 0 22.5 0 0 10.074 0 22.5 10.074 45 22.5 45z" id="Oval" fill="#F59B00" stroke="none"/><g filter="url(#filter_1)"><path d="M14.65 9.95L2.932 16.137q-.057.03-.115.056-.059.026-.12.049-.06.022-.121.04-.061.02-.124.034-.063.014-.126.025-.063.01-.127.017-.064.006-.128.008-.065.003-.129 0-.064-.001-.128-.007t-.128-.016q-.063-.01-.126-.024-.062-.014-.124-.032-.062-.018-.122-.04-.06-.022-.12-.048-.058-.026-.115-.056-.057-.03-.112-.063t-.108-.07q-.053-.036-.103-.076-.05-.04-.098-.083-.048-.043-.092-.09-.045-.045-.087-.094-.042-.049-.08-.1-.039-.052-.074-.106-.035-.053-.067-.11-.031-.055-.06-.113-.027-.058-.051-.118-.024-.06-.045-.12-.02-.061-.036-.123-.017-.062-.029-.125t-.02-.127q-.009-.064-.013-.128T0 14.368V1.998q0-.064.004-.128t.012-.128q.009-.064.021-.127.012-.063.029-.125.016-.062.036-.123.02-.06.045-.12.024-.06.052-.118.028-.058.06-.114Q.29.96.324.905.36.853.4.8.437.75.479.7.521.651.566.605.61.56.658.515.706.474.756.434T.859.356Q.912.32.967.286q.055-.033.112-.062.057-.03.116-.056.059-.026.119-.048.06-.022.122-.04.062-.018.124-.032.063-.014.126-.024.064-.01.128-.016T1.942 0q.064-.002.129 0 .064.003.128.01.064.006.127.016t.126.025q.063.015.124.033.062.019.122.041.06.023.119.05.058.025.115.055L14.65 6.415q.06.032.118.067.058.036.113.076.055.039.107.082.053.043.102.09.05.046.095.096.046.05.089.103.042.053.081.108.04.056.074.114.035.058.066.118.031.06.058.123.027.062.05.126.022.064.04.13.018.065.032.131.014.066.023.134.01.067.014.135.004.067.004.135t-.004.135q-.005.068-.014.135-.01.068-.023.134-.014.066-.032.132-.018.065-.04.129-.023.064-.05.126-.027.062-.058.123-.03.06-.066.118-.035.058-.074.114-.039.055-.081.108-.043.053-.089.103-.046.05-.095.096-.05.047-.102.09-.052.043-.107.082-.055.04-.113.076-.058.035-.118.067z" transform="translate(16 14)" id="Triangle" fill="#FFF" stroke="none"/></g></g></g></svg>
